src/outlook/outlook-black.svg

<svg xmlns="http://www.w3.org/2000/svg" width="128" height="128"><path d="M100.819 40.961c.989 0 2.741 1.346 2.741 3.224l-23.536 15.868c-.144.045-.457.042-.601 0l-5.469-3.443v-15.649h26.865zm-26.868 21.488v21.267h25.354c2.253 0 4.258-1.313 4.258-4.444v-28.761s-23.912 15.883-23.067 15.367c0 0-.847.517-1.55 0l-4.991-3.428h-.004zm-25.837-7.216c-1.701 0-3.056.8-4.057 2.394-1 1.597-1.502 3.709-1.502 6.338 0 2.668.501 4.777 1.502 6.328 1.001 1.554 2.314 2.326 3.937 2.326 1.674 0 3.001-.754 3.981-2.262.98-1.509 1.472-3.604 1.472-6.281 0-2.791-.475-4.964-1.428-6.517-.951-1.55-2.252-2.326-3.905-2.326zm22.896-31.233v80l-46.573-9.764v-61.221l46.573-9.015zm-12.458 39.737c0-4.12-.949-7.436-2.848-9.953-1.896-2.518-4.384-3.774-7.458-3.774-3.254 0-5.869 1.315-7.843 3.945-1.974 2.629-2.96 6.072-2.96 10.329 0 4.033.974 7.303 2.915 9.814 1.944 2.509 4.456 3.765 7.542 3.765 3.167 0 5.733-1.299 7.701-3.888 1.969-2.591 2.954-6.004 2.951-10.238z"/></svg>

<?xml version="1.0" encoding="UTF-8" standalone="no"?>
<!-- Created with Inkscape (http://www.inkscape.org/) -->

<svg
   xmlns:dc="http://purl.org/dc/elements/1.1/"
   xmlns:cc="http://creativecommons.org/ns#"
   xmlns:rdf="http://www.w3.org/1999/02/22-rdf-syntax-ns#"
   xmlns:svg="http://www.w3.org/2000/svg"
   xmlns="http://www.w3.org/2000/svg"
   xmlns:inkscape="http://www.inkscape.org/namespaces/inkscape"
   version="1.1"
   width="128"
   height="128"
   id="svg2">
  <metadata
     id="metadata10">
    <rdf:RDF>
      <cc:Work
         rdf:about="">
        <dc:format>image/svg+xml</dc:format>
        <dc:type
           rdf:resource="http://purl.org/dc/dcmitype/StillImage" />
      </cc:Work>
    </rdf:RDF>
  </metadata>
  <defs
     id="defs8" />
  <path
     d="m 100.819,40.961 c 0.989,0 2.741,1.346 2.741,3.224 L 80.024,60.053 c -0.144,0.045 -0.457,0.042 -0.601,0 L 73.954,56.61 V 40.961 h 26.865 z M 73.951,62.449 v 21.267 h 25.354 c 2.253,0 4.258,-1.313 4.258,-4.444 V 50.511 c 0,0 -23.912,15.883 -23.067,15.367 0,0 -0.847,0.517 -1.55,0 L 73.955,62.45 H 73.951 z M 48.114,55.233 c -1.701,0 -3.056,0.8 -4.057,2.394 -1,1.597 -1.502,3.709 -1.502,6.338 0,2.668 0.501,4.777 1.502,6.328 1.001,1.554 2.314,2.326 3.937,2.326 1.674,0 3.001,-0.754 3.981,-2.262 0.98,-1.509 1.472,-3.604 1.472,-6.281 0,-2.791 -0.475,-4.964 -1.428,-6.517 -0.951,-1.55 -2.252,-2.326 -3.905,-2.326 z M 71.01,24 v 80 L 24.437,94.236 V 33.015 L 71.01,24 z M 58.552,63.737 c 0,-4.12 -0.949,-7.436 -2.848,-9.953 -1.896,-2.518 -4.384,-3.774 -7.458,-3.774 -3.254,0 -5.869,1.315 -7.843,3.945 -1.974,2.629 -2.96,6.072 -2.96,10.329 0,4.033 0.974,7.303 2.915,9.814 1.944,2.509 4.456,3.765 7.542,3.765 3.167,0 5.733,-1.299 7.701,-3.888 1.969,-2.591 2.954,-6.004 2.951,-10.238 z"
     inkscape:connector-curvature="0"
     id="path4" />
</svg>
